X:0
T:Des Goldschmieds Töchterlein
%%score { ( 1 2 ) | ( 3 4 ) }
L:1/4
M:4/4
I:linebreak $
K:Bb
V:1 treble
V:2 treble 
V:3 bass 
V:4 bass 
V:1
 G A B G | ^F A G B | A G F z |] %3
V:2
 D F F E | D ^F G =F | F B,/C/ D z |] %3
V:3
 B, C D C/B,/ | A, D B, D | D G,/A,/ B, z |] %3
V:4
 G, F, B,, "_D-7"C, | "_{T}"D, D, "_T"G, B,,/C,/ | "_{SS}"D, E, B,, z |] %3